X: 45
T:Patsy Geary's Jig
R:Jig
Z:added by Alf Warnock
M:6/8
L:1/8
K:G
AG|F2A ABA|BcB A2G|F2A d2e|f3 fef|
g3 f3|e=fe d2B|[1 ABA AFD|E3 EFG:|[2 ABA e^fe|d3 d2|
|:e|f2e f2e|f2e fga|ABA BAF|ABA ABd|
efe efe|efe dfa|baf afe|d3 d2:|

